X: 08006
T: ARMIN'S HORNPIPE
C: Bob McQuillen 28 Mar 91
B: Bob's Note Book 8 #6
%R: hornpipe, reel
Z: 2021 John Chambers <jc:trillian.mit.edu>
M: C
L: 1/8
K: G
BA \
| G2DB, DEGB | AGFG A2BA | GBdB cedc | BdBG ADEF |\
| G2DB, DEGB | AGFG AcBA | GBdB cAFG | A2GF G2 :|
|: Bc \
| d2gf g2dc | Bcde dBGA | BcdB cdec | Bcde dcBc |\
| dggf g2dc | Bcde dBGA | BcdB cedc | BGGF G2 :|
%%begintext align
%% A lot of nice people
%% are involved with dance music out on the West
%% Coast, and one of them is Armin Barnett of Seattle.
%% Armin is a real fine fiddler, and he also _makes_
% real fine fiddles. He's even been known to teach
%% FRank Blade how to make and repair fiddles; I guess
%% all these things are reason enough for this tune's being here!
%%endtext

%%sep 1 1 500

%%sep 1 1 500

